\documentclass[border=1mm]{standalone}
\usepackage{luamplib}
\begin{document}
\begin{mplibcode}
beginfig(1);
undraw unitsquare xscaled 360 yscaled 178;
input reference-grid
endfig;
\end{mplibcode}
\end{document}

