\documentclass[border=5mm]{standalone}
\usepackage{luamplib}
\begin{document}
\mplibtextextlabel{enable}
\begin{mplibcode}
input tiling-arch-snub-hex-parts
beginfig(1);
draw P0 shifted 180 up;
draw P2 shifted 180 down;
endfig;
\end{mplibcode}
\end{document}
